Hatter-kde/actions/16/object-columns.svg

<?xml version="1.0" encoding="UTF-8"?>
<svg viewBox="0 0 16 16" xmlns="http://www.w3.org/2000/svg">
 <defs id="defs3051">
  <style id="current-color-scheme" type="text/css">.ColorScheme-Text {
        color:#363636;
      }</style>
 </defs>
 <path class="ColorScheme-Text" d="m2 2v12h3v-12h-3zm4 0v12h4v-12h-4zm5 0v12h3v-12h-3zm-8 1h1v10h-1v-10zm4 0h2v10h-2v-10zm5 0h1v10h-1v-10z" fill="currentColor"/>
</svg>

<svg xmlns="http://www.w3.org/2000/svg" viewBox="0 0 16 16">
  <defs id="defs3051">
    <style type="text/css" id="current-color-scheme">
      .ColorScheme-Text {
        color:#363636;
      }
      </style>
  </defs>
 <path style="fill:currentColor;fill-opacity:1;stroke:none" 
     d="M 2 2 L 2 14 L 5 14 L 5 2 L 2 2 z M 6 2 L 6 14 L 10 14 L 10 2 L 6 2 z M 11 2 L 11 14 L 14 14 L 14 2 L 11 2 z M 3 3 L 4 3 L 4 13 L 3 13 L 3 3 z M 7 3 L 9 3 L 9 13 L 7 13 L 7 3 z M 12 3 L 13 3 L 13 13 L 12 13 L 12 3 z "
     class="ColorScheme-Text"
     />
</svg>
